X:1
T:[ID 2-66]
T:[ID 2-66]
T:Bezeichnung standardisiert: Menuet [mit Trio] Men\"uet 5 Con Trio
T:Urheber unbekannt Datum in der hier transkribierten schriftlichen Quelle: 1767
C:Urheber unbekannt
C:Datum in der hier transkribierten schriftlichen Quelle: 1767
L:1/8
M:3/4
K:G
V:1 bass 
V:1
 G,2 G,,2 z2 | G,2 B,2 G,2 | D,2 D,,2 z2 | D,2 F,2 D,2 | G,2 G,,2 z2 | G,2 B,2 G,2 | F,2 D,2 G,2 | %7
 D,2 A,,2 D,,2 :: B,,2 B,2 A,2 | G,4 z2 | A,,2 A,2 G,2 | F,4 z2 | G,2 G,,2 z2 | G,2 B,2 G,2 | %14
 C2 D2 D,2 | G,2 D,2 G,,2 :|[M:3/4]"^Trio" !fermata!G,,G,G,G,G,G, | G,,G,G,G,G,G, | G,,G,G,G,G,G, | %19
 G,,G,D,B,, G,,2 | D,,D,D,D,D,D, | D,,D,D,D,D,D, | G,,2 D,2 D,,2 | G,2 D,2 G,,2 :: C,CCCCC | %25
 C,CCCCC | G,,G,G,G,G,G, | G,,G,G,G,G,G, | D,,D,D,D,D,D, | D,,D,D,D,D,D, | G,,2 D,2 D,,2 | %31
 G,2 D,2 G,,2 :| !fermata!G,2 G,,2 z2 | G,2 G,,2 D,2 | G,,2 D,2 D,,2 | %35
 G,,G,D,B,, G,,2"^DaCapo Menuet" || %36

